X: 29061
T: Neil Gow's Wife
R: strathspey
M: 4/4
K: Gminor
d|:B<G G>B A<F ~F>A|B<G G>A B>A B<g|B<G G>B A<F F>A|B<B c>A F<B B>d:|
B<B d>B f>Bd>B|F<F A>F c>FA>c|~B2 d>B f>Bd>f|g<g b>g d<g g>b|
f<d d>f e<c c>e|d<B B>d c>B A>F|G<GB<B c<c d>c|B>G B/A/G/F/ D<GG>d||

